src/assets/tokens/sanFRAX_EUR.svg

<svg width="149" height="82" viewBox="0 0 149 82" fill="none" xmlns="http://www.w3.org/2000/svg">
<path d="M108 81C130.091 81 148 63.0914 148 41C148 18.9086 130.091 1 108 1C85.9086 1 68 18.9086 68 41C68 63.0914 85.9086 81 108 81Z" fill="url(#paint0_linear_328_10)" stroke="black" stroke-width="0.5"/>
<path d="M81 33.8277L108 7L135 33.8277L121.751 46.9918L108.26 33.5862L108.017 33.3453L107.774 33.5862L94.2741 47L81 33.8277Z" fill="#FFF6F0" stroke="black"/>
<path d="M86.968 53.2H97.576V56.224H90.136V60.064H97.288V63.088H90.136V66.976H97.864V70H86.968V53.2ZM113.087 53.2V64.192C113.087 66.112 112.575 67.616 111.551 68.704C110.543 69.792 109.039 70.336 107.039 70.336C105.039 70.336 103.527 69.792 102.503 68.704C101.495 67.616 100.991 66.112 100.991 64.192V53.2H104.159V64.192C104.159 65.184 104.391 65.96 104.855 66.52C105.319 67.08 106.047 67.36 107.039 67.36C108.031 67.36 108.759 67.08 109.223 66.52C109.687 65.96 109.919 65.184 109.919 64.192V53.2H113.087ZM127.423 70H124.255V64.96C124.255 64.576 124.151 64.264 123.943 64.024C123.751 63.784 123.423 63.664 122.959 63.664H119.311V70H116.143V53.2H122.575C123.439 53.2 124.199 53.32 124.855 53.56C125.511 53.8 126.055 54.136 126.487 54.568C126.935 54.984 127.271 55.472 127.495 56.032C127.735 56.592 127.855 57.192 127.855 57.832V58.408C127.855 59.096 127.671 59.744 127.303 60.352C126.935 60.944 126.367 61.4 125.599 61.72V62.152C126.159 62.216 126.599 62.432 126.919 62.8C127.255 63.168 127.423 63.632 127.423 64.192V70ZM119.311 60.64H122.335C123.103 60.64 123.687 60.464 124.087 60.112C124.487 59.744 124.687 59.232 124.687 58.576V58.288C124.687 57.728 124.487 57.248 124.087 56.848C123.687 56.432 123.103 56.224 122.335 56.224H119.311V60.64Z" fill="#2A363A"/>
<path d="M41 81C18.9086 81 1 63.0914 1 41C1 18.9086 18.9086 1 41 1C63.0914 1 81 18.9086 81 41C81 63.0914 63.0914 81 41 81Z" fill="black" stroke="black" stroke-width="1.2373" stroke-miterlimit="11.3386"/>
<path d="M63.0668 18.7512C64.7534 20.5221 66.1449 22.0119 66.1589 22.04C66.173 22.0822 64.655 23.572 62.7858 25.3429C60.9165 27.1279 59.2861 28.6879 59.1737 28.7863L58.9628 28.9831L59.3423 29.6156C62.6733 35.1251 63.362 41.7589 61.2678 47.8587C60.8743 49.0112 60.1997 50.487 59.6234 51.4567C59.3423 51.9346 59.2158 52.2438 59.2439 52.3C59.272 52.3563 60.9727 54.1553 63.0247 56.3057C65.0767 58.442 66.7492 60.227 66.7773 60.2551C66.7914 60.2972 61.043 65.8489 60.4948 66.2986L60.284 66.4813L57.0373 63.0941C55.2524 61.2248 53.5798 59.468 53.3269 59.2009L52.849 58.7231L52.3992 59.0042C50.1083 60.4659 47.4238 61.4778 44.4583 62.0119C42.9685 62.279 40.1294 62.3492 38.5412 62.1525C35.4772 61.8011 32.4414 60.7751 29.9537 59.2712L29.3072 58.8777L28.6185 59.5523C27.1146 61.014 21.4927 66.3549 21.4365 66.383C21.3803 66.4111 15.2102 59.9599 15.2243 59.8756C15.2383 59.8334 19.4688 55.7716 22.0549 53.3401L22.9122 52.5249L22.5187 51.8784C19.2158 46.383 18.5271 39.721 20.6635 33.579C20.9727 32.6795 21.9144 30.6556 22.4625 29.728L22.7295 29.2642L19.1174 25.4835C17.1357 23.4174 15.5194 21.6887 15.5335 21.6465C15.5897 21.5059 21.9144 15.5326 21.9987 15.5326C22.0549 15.5326 23.6431 17.1489 25.5405 19.1447C27.4379 21.1265 29.012 22.7568 29.0542 22.7709C29.0823 22.7849 29.265 22.7006 29.4337 22.5741C29.9115 22.2508 31.1203 21.5903 31.7949 21.2811C33.8469 20.3394 35.7583 19.7631 37.979 19.4399C39.1315 19.2712 42.589 19.2431 43.6571 19.3977C46.2151 19.7631 48.3093 20.3956 50.4456 21.4638C51.064 21.7589 51.7808 22.1525 52.0619 22.3211L52.5679 22.6303L53.1441 22.0681C53.4534 21.7589 54.8588 20.4378 56.2503 19.1026C57.6417 17.7814 59.0612 16.4322 59.3985 16.0948L60.017 15.4905L63.0668 18.7512ZM39.4688 27.9149C37.2341 28.182 35.2383 28.9409 33.3971 30.234C32.4555 30.8946 31.05 32.3 30.3894 33.2417C26.6368 38.5544 27.3536 45.7786 32.076 50.2059C36.1097 53.9726 41.9425 54.8158 46.8476 52.3141C50.3894 50.501 52.8912 47.1841 53.6923 43.2066C53.9453 41.9416 53.9453 39.5804 53.6923 38.3296C53.4534 37.0927 53.1301 36.2073 52.5257 34.9705C50.1083 30.1075 44.8659 27.2684 39.4688 27.9149Z" fill="white"/>
<defs>
<linearGradient id="paint0_linear_328_10" x1="108" y1="1" x2="108" y2="81" gradientUnits="userSpaceOnUse">
<stop stop-color="#F4837D"/>
<stop offset="1" stop-color="#FDCEAA"/>
</linearGradient>
</defs>
</svg>

<svg width="149" height="82" fill="none" xmlns="http://www.w3.org/2000/svg"><path d="M108 81c22.091 0 40-17.909 40-40S130.091 1 108 1 68 18.909 68 41s17.909 40 40 40z" fill="url(#paint0_linear_328_10)" stroke="#000" stroke-width=".5"/><path d="M81 33.828L108 7l27 26.828-13.249 13.164-13.491-13.406-.243-.24-.243.24L94.274 47 81 33.828z" fill="#FFF6F0" stroke="#000"/><path d="M86.968 53.2h10.608v3.024h-7.44v3.84h7.152v3.024h-7.152v3.888h7.728V70H86.968V53.2zm26.119 0v10.992c0 1.92-.512 3.424-1.536 4.512-1.008 1.088-2.512 1.632-4.512 1.632-2 0-3.512-.544-4.536-1.632-1.008-1.088-1.512-2.592-1.512-4.512V53.2h3.168v10.992c0 .992.232 1.768.696 2.328.464.56 1.192.84 2.184.84.992 0 1.72-.28 2.184-.84.464-.56.696-1.336.696-2.328V53.2h3.168zM127.423 70h-3.168v-5.04c0-.384-.104-.696-.312-.936-.192-.24-.52-.36-.984-.36h-3.648V70h-3.168V53.2h6.432c.864 0 1.624.12 2.28.36.656.24 1.2.576 1.632 1.008.448.416.784.904 1.008 1.464.24.56.36 1.16.36 1.8v.576c0 .688-.184 1.336-.552 1.944-.368.592-.936 1.048-1.704 1.368v.432c.56.064 1 .28 1.32.648.336.368.504.832.504 1.392V70zm-8.112-9.36h3.024c.768 0 1.352-.176 1.752-.528.4-.368.6-.88.6-1.536v-.288c0-.56-.2-1.04-.6-1.44-.4-.416-.984-.624-1.752-.624h-3.024v4.416z" fill="#2A363A"/><path d="M41 81C18.909 81 1 63.091 1 41S18.909 1 41 1s40 17.909 40 40-17.909 40-40 40z" fill="#000" stroke="#000" stroke-width="1.237" stroke-miterlimit="11.339"/><path d="M63.067 18.751c1.686 1.771 3.078 3.26 3.092 3.289.014.042-1.504 1.532-3.373 3.303-1.87 1.785-3.5 3.345-3.612 3.443l-.211.197.38.633c3.33 5.51 4.019 12.143 1.925 18.243-.394 1.152-1.068 2.628-1.645 3.598-.28.478-.407.787-.38.843.029.056 1.73 1.855 3.782 4.006 2.052 2.136 3.724 3.921 3.752 3.95.014.041-5.734 5.593-6.282 6.043l-.211.182-3.247-3.387c-1.785-1.87-3.457-3.626-3.71-3.893l-.478-.478-.45.281c-2.29 1.462-4.975 2.474-7.94 3.008-1.49.267-4.33.337-5.918.14-3.064-.35-6.1-1.377-8.587-2.88l-.647-.394-.688.674c-1.504 1.462-7.126 6.803-7.183 6.831-.056.028-6.226-6.423-6.212-6.507.014-.043 4.245-4.104 6.83-6.536l.858-.815-.393-.647c-3.303-5.495-3.992-12.157-1.855-18.299.309-.9 1.25-2.923 1.798-3.851l.268-.464-3.613-3.78c-1.981-2.067-3.598-3.795-3.584-3.838.057-.14 6.381-6.113 6.466-6.113.056 0 1.644 1.616 3.542 3.612 1.897 1.982 3.471 3.612 3.513 3.626.028.014.211-.07.38-.197.477-.323 1.686-.984 2.36-1.293 2.053-.942 3.964-1.518 6.185-1.841 1.153-.169 4.61-.197 5.678-.042 2.558.365 4.652.998 6.789 2.066.618.295 1.335.689 1.616.857l.506.31.576-.563c.31-.31 1.715-1.63 3.106-2.965 1.392-1.322 2.811-2.67 3.148-3.008l.619-.604 3.05 3.26zm-23.598 9.164a13.02 13.02 0 0 0-6.072 2.319c-.941.66-2.347 2.066-3.008 3.008-3.752 5.312-3.035 12.537 1.687 16.964 4.034 3.767 9.867 4.61 14.772 2.108 3.541-1.813 6.043-5.13 6.844-9.107.253-1.265.253-3.627 0-4.877-.239-1.237-.562-2.123-1.166-3.36a12.896 12.896 0 0 0-13.057-7.055z" fill="#fff"/><defs><linearGradient id="paint0_linear_328_10" x1="108" y1="1" x2="108" y2="81" gradientUnits="userSpaceOnUse"><stop stop-color="#F4837D"/><stop offset="1" stop-color="#FDCEAA"/></linearGradient></defs></svg>
